X: 8
T:Angus Campbell
M:4/4
L:1/8
C:J. Scott Skinner
R:Reel
K:A
"E7"E|"A"A/A/A cA EAce|"A"a2 ga faec|"Bm"d/d/d Bd "A"c/c/c Ac|"Bm"BFBA "
E"GEFG|!
"A"A/A/A cA EAce|"A"a2 ga faec|"D"defd "A"ceaf|"E7"ecdB "A"Aefg||!
"A"a2ea caAa|"A"cAce aAca|"Bm"b2 fb dbBb|"Bm"dBdf bBdb|!
"A"a2ea caAa|"A"cAce aecA|"Bm"defd "A"ceaf|"E7"ecdB "A"A3||
